src/lib/packages/icons/src/assets/line/apple-pay.svg

<svg width="24" height="24" viewBox="0 0 24 24" fill="none" xmlns="http://www.w3.org/2000/svg">
<path d="M18 4.25H6C3.58 4.25 2.25 5.58 2.25 8V16C2.25 18.42 3.58 19.75 6 19.75H18C20.42 19.75 21.75 18.42 21.75 16V8C21.75 5.58 20.42 4.25 18 4.25ZM20.25 16C20.25 17.58 19.58 18.25 18 18.25H6C4.42 18.25 3.75 17.58 3.75 16V8C3.75 6.42 4.42 5.75 6 5.75H18C19.58 5.75 20.25 6.42 20.25 8V16ZM8.76001 12.52C8.76001 12.52 8.66 12.85 8.44 13.17C8.25 13.45 8.04998 13.73 7.72998 13.74C7.41998 13.74 7.31997 13.56 6.96997 13.56C6.61997 13.56 6.50997 13.74 6.21997 13.75C5.90997 13.76 5.67999 13.45 5.48999 13.16C5.08999 12.59 4.79001 11.54 5.20001 10.84C5.40001 10.49 5.76002 10.27 6.15002 10.26C6.45002 10.26 6.72997 10.46 6.90997 10.46C7.08997 10.46 7.41999 10.22 7.79999 10.24C7.94999 10.25 8.37002 10.29 8.65002 10.7C8.63002 10.72 8.14002 11 8.15002 11.58C8.15002 12.28 8.76002 12.51 8.77002 12.52H8.76001ZM7.56 9.85999C7.4 10.05 7.13 10.21 6.87 10.19C6.83999 9.93 6.97 9.65001 7.12 9.48001C7.27999 9.28001 7.56999 9.14001 7.79999 9.13C7.82999 9.4 7.72 9.67 7.56 9.87V9.85999ZM18.33 10.61H19L17.84 13.87C17.57 14.62 17.27 14.86 16.63 14.86C16.58 14.86 16.42 14.86 16.38 14.84V14.33C16.38 14.33 16.52 14.34 16.57 14.34C16.86 14.34 17.03 14.22 17.13 13.9L17.19 13.71L16.07 10.61H16.76L17.54 13.13H17.55L18.33 10.61ZM11.59 9.44H9.98999V13.7H10.65V12.24H11.57C12.41 12.24 12.99 11.67 12.99 10.83C12.99 9.98999 12.41 9.42999 11.59 9.42999V9.44ZM11.41 11.69H10.65V10H11.41C11.98 10 12.31 10.31 12.31 10.85C12.31 11.39 11.98 11.7 11.4 11.7L11.41 11.69ZM14.55 10.57C13.85 10.57 13.33 10.97 13.31 11.52H13.91C13.96 11.26 14.2 11.09 14.54 11.09C14.94 11.09 15.17 11.28 15.17 11.63V11.87L14.34 11.92C13.57 11.97 13.16 12.28 13.16 12.83C13.16 13.38 13.59 13.75 14.2 13.75C14.62 13.75 15 13.54 15.18 13.21H15.19V13.72H15.8V11.6C15.8 10.98 15.31 10.59 14.55 10.59V10.57ZM15.16 12.55C15.16 12.95 14.82 13.23 14.37 13.23C14.02 13.23 13.79 13.06 13.79 12.8C13.79 12.54 14.01 12.38 14.42 12.35L15.16 12.3V12.54V12.55Z" fill="currentColor"/>
</svg>

<svg xmlns="http://www.w3.org/2000/svg" width="24" height="24" fill="none"><path fill="currentColor" d="M18 4.25H6C3.58 4.25 2.25 5.58 2.25 8v8c0 2.42 1.33 3.75 3.75 3.75h12c2.42 0 3.75-1.33 3.75-3.75V8c0-2.42-1.33-3.75-3.75-3.75ZM20.25 16c0 1.58-.67 2.25-2.25 2.25H6c-1.58 0-2.25-.67-2.25-2.25V8c0-1.58.67-2.25 2.25-2.25h12c1.58 0 2.25.67 2.25 2.25v8ZM8.76 12.52s-.1.33-.32.65c-.19.28-.39.56-.71.57-.31 0-.41-.18-.76-.18-.35 0-.46.18-.75.19-.31.01-.54-.3-.73-.59-.4-.57-.7-1.62-.29-2.32.2-.35.56-.57.95-.58.3 0 .58.2.76.2.18 0 .51-.24.89-.22.15.01.57.05.85.46-.02.02-.51.3-.5.88 0 .7.61.93.62.94h-.01Zm-1.2-2.66c-.16.19-.43.35-.69.33-.03-.26.1-.54.25-.71.16-.2.45-.34.68-.35.03.27-.08.54-.24.74v-.01Zm10.77.75H19l-1.16 3.26c-.27.75-.57.99-1.21.99-.05 0-.21 0-.25-.02v-.51s.14.01.19.01c.29 0 .46-.12.56-.44l.06-.19-1.12-3.1h.69l.78 2.52h.01l.78-2.52Zm-6.74-1.17h-1.6v4.26h.66v-1.46h.92c.84 0 1.42-.57 1.42-1.41s-.58-1.4-1.4-1.4v.01Zm-.18 2.25h-.76V10h.76c.57 0 .9.31.9.85s-.33.85-.91.85l.01-.01Zm3.14-1.12c-.7 0-1.22.4-1.24.95h.6c.05-.26.29-.43.63-.43.4 0 .63.19.63.54v.24l-.83.05c-.77.05-1.18.36-1.18.91s.43.92 1.04.92c.42 0 .8-.21.98-.54h.01v.51h.61V11.6c0-.62-.49-1.01-1.25-1.01v-.02Zm.61 1.98c0 .4-.34.68-.79.68-.35 0-.58-.17-.58-.43s.22-.42.63-.45l.74-.05v.25Z"/></svg>
